svgs/duotone/computer-speaker.svg

<svg xmlns="http://www.w3.org/2000/svg" viewBox="0 0 640 512"><!--! Font Awesome Pro 6.6.0 by @fontawesome - https://fontawesome.com License - https://fontawesome.com/license (Commercial License) Copyright 2024 Fonticons, Inc. --><defs><style>.fa-secondary{opacity:.4}</style></defs><path class="fa-secondary" d="M0 96L0 320c0 35.3 28.7 64 64 64l224 0 0-64L64 320 64 96l224 0 0-16c0-18 6-34.6 16-48L64 32C28.7 32 0 60.7 0 96zM96 448c0 17.7 14.3 32 32 32l176 0c-10-13.4-16-30-16-48l0-16-160 0c-17.7 0-32 14.3-32 32zM320 80l0 352c0 26.5 21.5 48 48 48l224 0c26.5 0 48-21.5 48-48l0-352c0-26.5-21.5-48-48-48L368 32c-26.5 0-48 21.5-48 48zM576 320a96 96 0 1 1 -192 0 96 96 0 1 1 192 0zM512 128a32 32 0 1 1 -64 0 32 32 0 1 1 64 0z"/><path class="fa-primary" d="M64 96l224 0 0 224L64 320 64 96zm384 32a32 32 0 1 1 64 0 32 32 0 1 1 -64 0zm80 192a48 48 0 1 0 -96 0 48 48 0 1 0 96 0zm-144 0a96 96 0 1 1 192 0 96 96 0 1 1 -192 0z"/></svg>

<svg xmlns="http://www.w3.org/2000/svg" viewBox="0 0 640 512"><!--! Font Awesome Pro 6.4.0 by @fontawesome - https://fontawesome.com License - https://fontawesome.com/license (Commercial License) Copyright 2023 Fonticons, Inc. --><defs><style>.fa-secondary{opacity:.4}</style></defs><path class="fa-primary" d="M64 96H288V320H64V96zm384 32a32 32 0 1 1 64 0 32 32 0 1 1 -64 0zm80 192a48 48 0 1 0 -96 0 48 48 0 1 0 96 0zm-144 0a96 96 0 1 1 192 0 96 96 0 1 1 -192 0z"/><path class="fa-secondary" d="M288 432V416H128c-17.7 0-32 14.3-32 32s14.3 32 32 32H304c-10-13.4-16-30-16-48zM64 32C28.7 32 0 60.7 0 96V320c0 35.3 28.7 64 64 64H288V320H64V96H288V80c0-18 6-34.6 16-48H64zm304 0c-26.5 0-48 21.5-48 48V432c0 26.5 21.5 48 48 48H592c26.5 0 48-21.5 48-48V80c0-26.5-21.5-48-48-48H368zM480 224a96 96 0 1 1 0 192 96 96 0 1 1 0-192zm-32-96a32 32 0 1 1 64 0 32 32 0 1 1 -64 0z"/></svg>
